error/static/dot.svg

<?xml version="1.0" encoding="UTF-8" standalone="no"?><!DOCTYPE svg PUBLIC "-//W3C//DTD SVG 1.1//EN" "http://www.w3.org/Graphics/SVG/1.1/DTD/svg11.dtd"><svg width="100%" height="100%" viewBox="0 0 6 29" version="1.1" xmlns="http://www.w3.org/2000/svg" xmlns:xlink="http://www.w3.org/1999/xlink" xml:space="preserve" style="fill-rule:evenodd;clip-rule:evenodd;stroke-linejoin:round;stroke-miterlimit:1.41421;"><g id="dot"><path id="Fill.-27" d="M5.291,3.877l0,-1.91l-1.351,-1.351l-1.91,0l-1.351,1.351l0,1.91l1.351,1.351l1.91,0l1.351,-1.351Z"/><path id="Fill.-28" d="M5.291,15.442l0,-1.91l-1.351,-1.351l-1.91,0l-1.351,1.351l0,1.91l1.351,1.351l1.91,0l1.351,-1.351Z" style="fill:#a67a44;"/><path id="Fill.-29" d="M5.291,27.006l0,-1.91l-1.351,-1.351l-1.91,0l-1.351,1.351l0,1.91l1.351,1.351l1.91,0l1.351,-1.351Z" style="fill:#e6e6e6;"/></g></svg>

<svg viewBox="0 0 6 29" xmlns="http://www.w3.org/2000/svg" fill-rule="evenodd" clip-rule="evenodd" stroke-linejoin="round" stroke-miterlimit="1.414"><path d="M5.291 3.877v-1.91L3.94.616H2.03L.679 1.967v1.91L2.03 5.228h1.91l1.351-1.351z"/><path d="M5.291 15.442v-1.91L3.94 12.181H2.03L.679 13.532v1.91l1.351 1.351h1.91l1.351-1.351z" fill="#a67a44"/><path d="M5.291 27.006v-1.91L3.94 23.745H2.03L.679 25.096v1.91l1.351 1.351h1.91l1.351-1.351z" fill="#e6e6e6"/></svg>
